X: 10716
T: Doyle's
R: polka
M: 2/4
K: Gmajor
|:G/A/|Bd G>A|Bd ed|Bd GG/A/|BA AG/A/|
B/c/d G>A|Bd ed|B/c/d ef|ag g:|
|:d|GB/d/ ed|gf/g/ ed|B/c/d GA|BA AB/A/|
GB/d/ ed|gf/g/ ed|Bd ef|ag g:|

